Sources/FrostedUI/Resources/Icons.xcassets/sealCheckmarkFilled32.imageset/seal-checkmark-filled-32.svg

<svg width="32" height="32" viewBox="0 0 32 32" fill="none" xmlns="http://www.w3.org/2000/svg" data-fui-icon="true">
  <g clip-path="url(#clip0_2948_3)">
    <path
      d="M16 0C17.4844 0 18.811 0.674051 19.6914 1.73242C20.1513 2.28524 20.6988 2.78667 21.3633 3.06152C22.0286 3.33672 22.7645 3.36535 23.4814 3.29883C24.8545 3.1715 26.272 3.6333 27.3232 4.68457C28.373 5.73454 28.8334 7.14947 28.707 8.52051C28.6408 9.23899 28.6701 9.97603 28.9463 10.6426C29.2213 11.306 29.722 11.8534 30.2734 12.3135C31.3285 13.194 32 14.5184 32 16C32 17.4782 31.3312 18.8001 30.2803 19.6807C29.7272 20.1441 29.2244 20.6938 28.9482 21.3604C28.6706 22.0305 28.6423 22.7718 28.708 23.4941C28.8327 24.8636 28.3716 26.2765 27.3232 27.3252C26.2732 28.3753 24.8579 28.837 23.4863 28.7109C22.766 28.6447 22.027 28.6731 21.3584 28.9492C20.6925 29.2242 20.1429 29.7257 19.6807 30.2783C18.8006 31.3304 17.4792 32 16 32C14.5141 32 13.186 31.3248 12.3057 30.2646C11.8497 29.7156 11.3069 29.2173 10.6475 28.9443C9.98568 28.6705 9.25309 28.6428 8.54004 28.71C7.16607 28.8391 5.74741 28.3783 4.69531 27.3262C3.64665 26.2774 3.18497 24.8641 3.30957 23.4941C3.37496 22.7751 3.34555 22.0372 3.06934 21.3701C2.79305 20.7031 2.2886 20.1539 1.7334 19.6924C0.674376 18.8119 0 17.4849 0 16C4.13628e-05 14.5119 0.677325 13.1823 1.74023 12.3018C2.29371 11.8433 2.79588 11.2966 3.07129 10.6328C3.34651 9.96937 3.37535 9.23575 3.30957 8.52051C3.18339 7.14908 3.64542 5.73353 4.69531 4.68359C5.74859 3.63033 7.16943 3.16938 8.54492 3.2998C9.2548 3.36717 9.98377 3.33922 10.6426 3.06641C11.3011 2.79368 11.843 2.29563 12.2969 1.74609C13.1773 0.679938 14.5092 7.53423e-06 16 0ZM21.5391 11.4658C21.2462 11.1729 20.7714 11.1729 20.4785 11.4658L13.0088 18.9355L10.5391 16.4658C10.2462 16.1729 9.77141 16.1729 9.47852 16.4658C9.18587 16.7587 9.1857 17.2336 9.47852 17.5264L12.4785 20.5264C12.7713 20.8192 13.2461 20.819 13.5391 20.5264L21.5391 12.5264C21.832 12.2335 21.832 11.7587 21.5391 11.4658Z"
      fill="currentColor"
    />
  </g>
  <defs>
    <clipPath id="clip0_2948_3"><path fill="currentColor" d="M0 0H32V32H0z" /></clipPath>
  </defs>
</svg>

<svg xmlns="http://www.w3.org/2000/svg" width="32" height="32" fill="none" data-fui-icon="true" viewBox="0 0 32 32"><g clip-path="url(#a)"><path fill="currentColor" d="M16 0a4.79 4.79 0 0 1 3.691 1.732c.46.553 1.008 1.055 1.672 1.33.666.275 1.402.303 2.118.237a4.8 4.8 0 0 1 3.842 1.386 4.79 4.79 0 0 1 1.384 3.836c-.066.718-.037 1.455.24 2.122.274.663.775 1.21 1.326 1.67A4.79 4.79 0 0 1 32 16a4.79 4.79 0 0 1-1.72 3.68c-.553.464-1.056 1.014-1.332 1.68-.277.67-.306 1.412-.24 2.134a4.79 4.79 0 0 1-1.385 3.831 4.79 4.79 0 0 1-3.837 1.386c-.72-.066-1.459-.038-2.128.238-.666.275-1.215.777-1.677 1.33A4.79 4.79 0 0 1 16 32a4.79 4.79 0 0 1-3.694-1.735c-.456-.55-1-1.048-1.658-1.32-.662-.274-1.395-.302-2.108-.235a4.79 4.79 0 0 1-3.845-1.384 4.79 4.79 0 0 1-1.385-3.832c.065-.719.036-1.457-.24-2.124-.277-.667-.781-1.216-1.337-1.678A4.79 4.79 0 0 1 0 16a4.79 4.79 0 0 1 1.74-3.698c.554-.459 1.056-1.005 1.331-1.67.276-.663.304-1.396.239-2.111a4.8 4.8 0 0 1 1.385-3.837A4.79 4.79 0 0 1 8.545 3.3c.71.067 1.439.04 2.098-.234.658-.272 1.2-.77 1.654-1.32A4.79 4.79 0 0 1 16 0m5.54 11.466a.75.75 0 0 0-1.061 0l-7.47 7.47-2.47-2.47a.75.75 0 1 0-1.06 1.06l3 3a.75.75 0 0 0 1.06 0l8-8a.75.75 0 0 0 0-1.06"/></g><defs><clipPath id="a"><path fill="currentColor" d="M0 0h32v32H0z"/></clipPath></defs></svg>
